X: 1466
T: Gay Charmers Set Tune
B: australian traditional tunes wiki
M:6/8
L:1/8
R: Jig
Q: 3/8=100
K:D
V:1 
|:A|"D"dAF DFA|dcdd2d|"A7"ecB EGc|edee2c|
"D"dAF DFA|dcdd2d|"A7"cdc edc|1"D"d3-d2:|2"D"d3-d2z||
|:"D"aga fef |dcdA2A|"A7"gag efe|cdcA2A|
"D"aga fef|dcdA2A|"A7"gag ABc|"D"d3-d2z:|
% abcbook-tune_id 6342d53a3da375bf278f56da


% abcbook-boost 0
% abcbook-tablature 
% abcbook-transpose 
% abcbook-lastupdated 1665324366493
% abcbook-soundfonts 
% abcbook-repeats 1
% NFF Book 2008

